remix/System/apps-2-line.svg

<svg viewBox="0 0 24 24" fill="currentColor" xmlns="http://www.w3.org/2000/svg"><path d="M7 11.5C4.51472 11.5 2.5 9.48528 2.5 7C2.5 4.51472 4.51472 2.5 7 2.5C9.48528 2.5 11.5 4.51472 11.5 7C11.5 9.48528 9.48528 11.5 7 11.5ZM7 21.5C4.51472 21.5 2.5 19.4853 2.5 17C2.5 14.5147 4.51472 12.5 7 12.5C9.48528 12.5 11.5 14.5147 11.5 17C11.5 19.4853 9.48528 21.5 7 21.5ZM17 11.5C14.5147 11.5 12.5 9.48528 12.5 7C12.5 4.51472 14.5147 2.5 17 2.5C19.4853 2.5 21.5 4.51472 21.5 7C21.5 9.48528 19.4853 11.5 17 11.5ZM17 21.5C14.5147 21.5 12.5 19.4853 12.5 17C12.5 14.5147 14.5147 12.5 17 12.5C19.4853 12.5 21.5 14.5147 21.5 17C21.5 19.4853 19.4853 21.5 17 21.5ZM7 9.5C8.38071 9.5 9.5 8.38071 9.5 7C9.5 5.61929 8.38071 4.5 7 4.5C5.61929 4.5 4.5 5.61929 4.5 7C4.5 8.38071 5.61929 9.5 7 9.5ZM7 19.5C8.38071 19.5 9.5 18.3807 9.5 17C9.5 15.6193 8.38071 14.5 7 14.5C5.61929 14.5 4.5 15.6193 4.5 17C4.5 18.3807 5.61929 19.5 7 19.5ZM17 9.5C18.3807 9.5 19.5 8.38071 19.5 7C19.5 5.61929 18.3807 4.5 17 4.5C15.6193 4.5 14.5 5.61929 14.5 7C14.5 8.38071 15.6193 9.5 17 9.5ZM17 19.5C18.3807 19.5 19.5 18.3807 19.5 17C19.5 15.6193 18.3807 14.5 17 14.5C15.6193 14.5 14.5 15.6193 14.5 17C14.5 18.3807 15.6193 19.5 17 19.5Z"/></svg>

<svg viewBox="0 0 24 24" xmlns="http://www.w3.org/2000/svg"><path fill="none" d="M0 0h24v24H0Z"/><path d="M6.5 11.5v0C4.01 11.5 2 9.48 2 7c0-2.49 2.01-4.5 4.5-4.5v0C8.98 2.5 11 4.51 11 7c0 2.48-2.02 4.5-4.5 4.5Zm.5 10v0c-2.49 0-4.5-2.02-4.5-4.5 0-2.49 2.01-4.5 4.5-4.5v0c2.48 0 4.5 2.01 4.5 4.5 0 2.48-2.02 4.5-4.5 4.5Zm10-10v0c-2.49 0-4.5-2.02-4.5-4.5 0-2.49 2.01-4.5 4.5-4.5v0c2.48 0 4.5 2.01 4.5 4.5 0 2.48-2.02 4.5-4.5 4.5Zm0 10v0c-2.49 0-4.5-2.02-4.5-4.5 0-2.49 2.01-4.5 4.5-4.5v0c2.48 0 4.5 2.01 4.5 4.5 0 2.48-2.02 4.5-4.5 4.5ZM6.5 9.5v0C7.88 9.5 9 8.38 9 7c0-1.39-1.12-2.5-2.5-2.5v0C5.11 4.5 4 5.61 4 7c0 1.38 1.11 2.5 2.5 2.5Zm.5 10v0c1.38 0 2.5-1.12 2.5-2.5 0-1.39-1.12-2.5-2.5-2.5v0c-1.39 0-2.5 1.11-2.5 2.5 0 1.38 1.11 2.5 2.5 2.5Zm10-10v0c1.38 0 2.5-1.12 2.5-2.5 0-1.39-1.12-2.5-2.5-2.5v0c-1.39 0-2.5 1.11-2.5 2.5 0 1.38 1.11 2.5 2.5 2.5Zm0 10v0c1.38 0 2.5-1.12 2.5-2.5 0-1.39-1.12-2.5-2.5-2.5v0c-1.39 0-2.5 1.11-2.5 2.5 0 1.38 1.11 2.5 2.5 2.5Z"/></svg>
